X: 2
T:   
M: 4/4
L: 1/8
R: reel
K: Ador
|: ed |\
cAAB AGEF | GEAF GEDG | 
EAAE ABcd |[1 eage d2 :|[2 ecdB A2 ||
